components/icon/svg/24/action_edit.svg

<?xml version="1.0" encoding="UTF-8"?>
<svg width="24px" height="24px" viewBox="0 0 24 24" version="1.1" xmlns="http://www.w3.org/2000/svg" xmlns:xlink="http://www.w3.org/1999/xlink">
    <!-- Generator: Sketch 64 (93537) - https://sketch.com -->
    <title>ic-db_action_edit_24</title>
    <desc>Created with Sketch.</desc>
    <g id="Symbols" stroke="none" stroke-width="1" fill="none" fill-rule="evenodd">
        <g id="24dp-Icon/Action/Edit" fill="#282D37">
            <path d="M17.4679143,2 C18.0315297,2 18.5715818,2.21136832 18.9707551,2.63400469 L21.2720427,4.91182922 C21.7182424,5.38149204 22,5.96857055 22,6.60257524 C22,7.16619067 21.7886317,7.75316892 21.2720427,8.26985817 L9.53087345,20.0344905 C9.24911587,20.3162481 8.89686876,20.5745426 8.56808474,20.621569 L3.26111555,21.9600679 C3.19062602,21.983531 3.12023676,21.983531 3.02628414,21.983531 C2.74452656,21.983531 2.4861318,21.8661153 2.32178992,21.6782101 C2.1104216,21.4668418 1.94607973,21.1616211 2.01656926,20.8798635 L2.04003234,20.7624478 L3.30804172,15.6432836 C3.40199434,15.2441103 3.5897993,14.8918632 3.84819406,14.6100053 L15.7302421,2.72795731 C16.1999049,2.25829449 16.8339096,2 17.4679143,2 Z M5.39796102,15.8310885 L5.32757176,15.9015781 C5.30400841,15.9250412 5.28054532,16.0189938 5.25708223,16.1129464 L4.38824614,19.5882908 L7.81666435,18.7663809 C7.86359052,18.7663809 8.00456958,18.7194547 8.05149575,18.6725285 L8.14544837,18.5785759 L5.39796102,15.8310885 Z M14.4152063,6.88433282 L6.85387563,14.4456635 L9.55433654,17.1695875 L17.1391303,9.58479373 L14.4152063,6.88433282 Z M17.3974248,4.04299313 C17.3035724,4.04299313 17.2096198,4.06645621 17.1391303,4.16040883 L15.8240944,5.47544465 L18.5715818,8.22283173 L19.8866176,6.88433282 C19.9570069,6.81394356 19.98047,6.74345403 19.98047,6.64950142 C19.98047,6.55564907 19.9335438,6.43823337 19.8395912,6.34428075 L17.6557193,4.16040883 C17.58533,4.06645621 17.4913774,4.04299313 17.3974248,4.04299313 Z" id="🎨-Color"></path>
        </g>
    </g>
</svg>

<svg width="24" height="24" xmlns="http://www.w3.org/2000/svg"><path d="M17.468 2c.564 0 1.104.211 1.503.634l2.301 2.278c.446.47.728 1.057.728 1.69 0 .564-.211 1.151-.728 1.668L9.531 20.034c-.282.282-.634.54-.963.588L3.261 21.96c-.07.024-.14.024-.235.024a.937.937 0 01-.704-.306c-.212-.211-.376-.516-.305-.798l.023-.118 1.268-5.119c.094-.399.282-.751.54-1.033L15.73 2.728A2.475 2.475 0 0117.468 2zM5.398 15.831l-.07.07c-.024.024-.047.118-.07.212l-.87 3.475 3.429-.822a.496.496 0 00.234-.093l.094-.094-2.747-2.748zm9.017-8.947l-7.561 7.562 2.7 2.724 7.585-7.585-2.724-2.7zm2.982-2.841c-.093 0-.187.023-.258.117l-1.315 1.315 2.748 2.748 1.315-1.339c.07-.07.093-.14.093-.234a.455.455 0 00-.14-.306L17.656 4.16c-.07-.094-.165-.117-.259-.117z" fill="#282D37" fill-rule="evenodd"/></svg>
